svg/system/loading_3_fill.svg

<svg xmlns="http://www.w3.org/2000/svg" width="24" height="24" viewBox="0 0 24 24"><g fill="none" fill-rule="evenodd"><path d="M24,0 L24,24 L0,24 L0,0 L24,0 Z M12.5934901,23.257841 L12.5819402,23.2595131 L12.5108777,23.2950439 L12.4918791,23.2987469 L12.4918791,23.2987469 L12.4767152,23.2950439 L12.4056548,23.2595131 C12.3958229,23.2563662 12.3870493,23.2590235 12.3821421,23.2649074 L12.3780323,23.275831 L12.360941,23.7031097 L12.3658947,23.7234994 L12.3769048,23.7357139 L12.4804777,23.8096931 L12.4953491,23.8136134 L12.4953491,23.8136134 L12.5071152,23.8096931 L12.6106902,23.7357139 L12.6232938,23.7196733 L12.6232938,23.7196733 L12.6266527,23.7031097 L12.609561,23.275831 C12.6075724,23.2657013 12.6010112,23.2592993 12.5934901,23.257841 L12.5934901,23.257841 Z M12.8583906,23.1452862 L12.8445485,23.1473072 L12.6598443,23.2396597 L12.6498822,23.2499052 L12.6498822,23.2499052 L12.6471943,23.2611114 L12.6650943,23.6906389 L12.6699349,23.7034178 L12.6699349,23.7034178 L12.678386,23.7104931 L12.8793402,23.8032389 C12.8914285,23.8068999 12.9022333,23.8029875 12.9078286,23.7952264 L12.9118235,23.7811639 L12.8776777,23.1665331 C12.8752882,23.1545897 12.8674102,23.1470016 12.8583906,23.1452862 L12.8583906,23.1452862 Z M12.1430473,23.1473072 C12.1332178,23.1423925 12.1221763,23.1452606 12.1156365,23.1525954 L12.1099173,23.1665331 L12.0757714,23.7811639 C12.0751323,23.7926639 12.0828099,23.8018602 12.0926481,23.8045676 L12.108256,23.8032389 L12.3092106,23.7104931 L12.3186497,23.7024347 L12.3186497,23.7024347 L12.3225043,23.6906389 L12.340401,23.2611114 L12.337245,23.2485176 L12.337245,23.2485176 L12.3277531,23.2396597 L12.1430473,23.1473072 Z"/><path fill="#09244B" d="M12,4.5 C7.85786,4.5 4.5,7.85786 4.5,12 C4.5,16.1421 7.85786,19.5 12,19.5 C16.1421,19.5 19.5,16.1421 19.5,12 C19.5,7.85786 16.1421,4.5 12,4.5 Z M1.5,12 C1.5,6.20101 6.20101,1.5 12,1.5 C17.799,1.5 22.5,6.20101 22.5,12 C22.5,17.799 17.799,22.5 12,22.5 C6.20101,22.5 1.5,17.799 1.5,12 Z" opacity=".1"/><path fill="#09244B" d="M12.0001,4.5 C10.4562,4.5 9.02542,4.96489 7.83451,5.76206 C7.4703,6.00586 7.12843,6.28083 6.81279,6.58319 C6.21456,7.15626 5.26503,7.13587 4.69196,6.53764 C4.11888,5.93941 4.13928,4.98988 4.73751,4.41681 C5.1784,3.99445 5.65621,3.61009 6.16574,3.26903 C7.83502,2.15165 9.84374,1.5 12.0001,1.5 C12.8285,1.5 13.5001,2.17157 13.5001,3 C13.5001,3.82843 12.8285,4.5 12.0001,4.5 Z"/></g></svg>

<svg xmlns="http://www.w3.org/2000/svg" width="24" height="24"><g fill="none" fill-rule="evenodd"><path d="M24 0v24H0V0zM12.593 23.258l-.011.002-.071.035-.02.004-.014-.004-.071-.035c-.01-.004-.019-.001-.024.005l-.004.01-.017.428.005.02.01.013.104.074.015.004.012-.004.104-.074.012-.016.004-.017-.017-.427c-.002-.01-.009-.017-.017-.018m.265-.113-.013.002-.185.093-.01.01-.003.011.018.43.005.012.008.007.201.093c.012.004.023 0 .029-.008l.004-.014-.034-.614c-.003-.012-.01-.02-.02-.022m-.715.002a.023.023 0 0 0-.027.006l-.006.014-.034.614c0 .012.007.02.017.024l.015-.002.201-.093.01-.008.004-.011.017-.43-.003-.012-.01-.01z"/><path fill="#09244B" d="M12 4.5a7.5 7.5 0 1 0 0 15 7.5 7.5 0 0 0 0-15M1.5 12C1.5 6.201 6.201 1.5 12 1.5S22.5 6.201 22.5 12 17.799 22.5 12 22.5 1.5 17.799 1.5 12" opacity=".1"/><path fill="#09244B" d="M12 4.5a7.458 7.458 0 0 0-5.187 2.083 1.5 1.5 0 0 1-2.075-2.166A10.458 10.458 0 0 1 12 1.5a1.5 1.5 0 0 1 0 3"/></g></svg>
